; generated by PrusaSlicer 2.6.1+win64 on 2024-01-16 at 23:40:20 UTC

; 

; external perimeters extrusion width = 0.42mm
; perimeters extrusion width = 0.44mm
; infill extrusion width = 0.44mm
; solid infill extrusion width = 0.44mm
; top infill extrusion width = 0.40mm
; support material extrusion width = 0.36mm
; first layer extrusion width = 0.42mm

M201 X500 Y500 Z100 E5000 ; sets maximum accelerations, mm/sec^2
M203 X500 Y500 Z10 E60 ; sets maximum feedrates, mm / sec
M204 S500 T1000 ; sets acceleration (S) and retract acceleration (R), mm/sec^2
M205 X8.00 Y8.00 Z0.40 E5.00 ; sets the jerk limits, mm/sec
M205 S0 T0 ; sets the minimum extruding and travel feed rate, mm/sec
;TYPE:Custom
G90 ; use absolute coordinates
M83 ; extruder relative mode
M104 S150 ; set temporary nozzle temp to prevent oozing during homing
M140 S60 ; set final bed temp
G4 S30 ; allow partial nozzle warmup
G28 ; home all axis
G1 Z50 F240
G1 X2.0 Y10 F3000
M104 S210 ; set final nozzle temp
M190 S60 ; wait for bed temp to stabilize
M109 S210 ; wait for nozzle temp to stabilize
G1 Z0.28 F240
G92 E0
G1 X2.0 Y140 E10 F1500 ; prime the nozzle
G1 X2.3 Y140 F5000
G92 E0
G1 X2.3 Y10 E10 F1200 ; prime the nozzle
G92 E0
G21 ; set units to millimeters
G90 ; use absolute coordinates
M83 ; use relative distances for extrusion
; Filament gcode
M107
;LAYER_CHANGE
;Z:0.2
;HEIGHT:0.2
;BEFORE_LAYER_CHANGE
G92 E0
;0.2


G1 E-5 F3600
G1 Z.2 F9000
;AFTER_LAYER_CHANGE
;0.2
G1 X92.752 Y92.752
G1 E5 F2400
M204 S500
;TYPE:Skirt/Brim
;WIDTH:0.42
G1 F1200
G1 X94.09 Y91.413 E.05935
G1 X95.489 Y90.573 E.05116
G1 X96.478 Y90.424 E.03136
G1 X134.522 Y90.424 E1.19284
G1 X136.105 Y90.818 E.05115
G1 X136.91 Y91.413 E.03139
G1 X139.587 Y94.09 E.1187
G1 X140.428 Y95.489 E.05118
G1 X140.576 Y96.478 E.03135
G1 X140.576 Y134.522 E1.19284
G1 X140.182 Y136.105 E.05115
G1 X139.587 Y136.91 E.03139
G1 X136.91 Y139.587 E.1187
G1 X135.512 Y140.428 E.05115
G1 X134.522 Y140.576 E.03139
G1 X96.478 Y140.576 E1.19284
G1 X94.895 Y140.182 E.05115
G1 X94.09 Y139.587 E.03139
G1 X91.413 Y136.91 E.1187
G1 X90.573 Y135.512 E.05114
G1 X90.424 Y134.522 E.03139
G1 X90.424 Y96.478 E1.19284
G1 X90.818 Y94.895 E.05115
G1 X91.413 Y94.09 E.03139
G1 X92.709 Y92.794 E.05747
; printing object Part1.STL id:0 copy 0
G1 E-3.5 F3600
;WIPE_START
G1 F7200
G1 X94.09 Y91.413 E-.92769
G1 X95.123 Y90.793 E-.57231
;WIPE_END
G1 X110.428 Y97.817 F9000
G1 E5 F2400
;TYPE:Support material
G1 F1200
G1 X111.766 Y97.817 E.04195
G1 X111.766 Y100.494 E.08394
G1 X113.105 Y100.494 E.04198
G1 X113.105 Y101.833 E.04198
G1 X117.895 Y101.833 E.15019
G1 X117.895 Y99.155 E.08397
G1 X119.234 Y99.155 E.04198
G1 X119.234 Y96.478 E.08394
G1 X121.911 Y96.478 E.08394
G1 X121.911 Y95.14 E.04195
G1 X124.588 Y95.14 E.08394
G1 X124.588 Y93.801 E.04198
G1 X134.522 Y93.801 E.31147
G1 X134.522 Y95.14 E.04198
G1 X135.86 Y95.14 E.04195
G1 X135.86 Y96.478 E.04195
G1 X137.199 Y96.478 E.04198
G1 X137.199 Y106.671 E.31959
G1 X133.496 Y103.708 E.1487
G1 X133.659 Y103.372 E.01171
G1 X134.902 Y101.282 E.07624
G1 X134.84 Y100.942 E.01084
G1 X134.118 Y100.364 E.029
G1 X133.702 Y100.441 E.01326
G1 X132.371 Y102.716 E.08264
G1 X131.331 Y104.917 E.07633
G1 X130.415 Y107.398 E.08292
G1 X130.69 Y107.793 E.01509
G1 X131.581 Y107.795 E.02794
G1 X131.822 Y107.632 E.00912
G1 X132.682 Y105.387 E.07538
G1 X133.024 Y104.682 E.02457
G1 X134.522 Y104.959 E.04776
G1 X134.522 Y110.428 E.17148
G1 X133.183 Y110.428 E.04198
G1 X133.183 Y111.766 E.04195
G1 X130.506 Y111.766 E.08394
G1 X130.506 Y117.895 E.19217
G1 X131.845 Y117.895 E.04198
G1 X131.845 Y119.234 E.04198
G1 X134.522 Y119.234 E.08394
G1 X134.522 Y121.911 E.08394
G1 X135.86 Y121.911 E.04195
G1 X135.86 Y124.588 E.08394
G1 X137.199 Y124.588 E.04198
G1 X137.199 Y134.522 E.31147
G1 X135.86 Y134.522 E.04198
G1 X135.86 Y135.86 E.04195
G1 X134.522 Y135.86 E.04195
G1 X134.522 Y137.199 E.04198
G1 X124.329 Y137.199 E.31959
G1 X127.292 Y133.496 E.1487
G1 X127.628 Y133.659 E.01171
G1 X129.718 Y134.902 E.07624
G1 X130.058 Y134.84 E.01084
G1 X130.636 Y134.118 E.029
G1 X130.559 Y133.702 E.01326
G1 X128.302 Y132.381 E.082
G1 X126.102 Y131.339 E.07633
G1 X123.602 Y130.415 E.08357
G1 X123.207 Y130.69 E.01509
G1 X123.205 Y131.581 E.02794
G1 X123.368 Y131.822 E.00912
G1 X125.613 Y132.682 E.07538
G1 X126.318 Y133.024 E.02457
G1 X126.041 Y134.522 E.04776
G1 X120.572 Y134.522 E.17148
G1 X120.572 Y133.183 E.04198
G1 X119.234 Y133.183 E.04195
G1 X119.234 Y130.506 E.08394
G1 X117.895 Y130.506 E.04198
G1 X117.895 Y129.168 E.04195
G1 X113.105 Y129.168 E.15019
G1 X113.105 Y131.845 E.08394
G1 X111.766 Y131.845 E.04198
G1 X111.766 Y134.522 E.08394
G1 X109.089 Y134.522 E.08394
G1 X109.089 Y135.86 E.04195
G1 X106.412 Y135.86 E.08394
G1 X106.412 Y137.199 E.04198
G1 X96.478 Y137.199 E.31147
G1 X96.478 Y135.86 E.04198
G1 X95.14 Y135.86 E.04195
G1 X95.14 Y134.522 E.04195
G1 X93.801 Y134.522 E.04198
G1 X93.801 Y124.329 E.31959
G1 X97.504 Y127.292 E.1487
G1 X97.341 Y127.628 E.01171
G1 X96.098 Y129.718 E.07624
G1 X96.16 Y130.058 E.01084
G1 X96.882 Y130.636 E.029
G1 X97.298 Y130.559 E.01326
G1 X98.629 Y128.284 E.08264
G1 X99.669 Y126.083 E.07633
G1 X100.585 Y123.602 E.08292
G1 X100.31 Y123.207 E.01509
G1 X99.419 Y123.205 E.02794
G1 X99.178 Y123.368 E.00912
G1 X98.318 Y125.613 E.07538
G1 X97.976 Y126.318 E.02457
G1 X96.478 Y126.041 E.04776
G1 X96.478 Y120.572 E.17148
G1 X97.817 Y120.572 E.04198
G1 X97.817 Y119.234 E.04195
G1 X100.494 Y119.234 E.08394
G1 X100.494 Y113.105 E.19217
G1 X99.155 Y113.105 E.04198
G1 X99.155 Y111.766 E.04198
G1 X96.478 Y111.766 E.08394
G1 X96.478 Y109.089 E.08394
G1 X95.14 Y109.089 E.04195
G1 X95.14 Y106.412 E.08394
G1 X93.801 Y106.412 E.04198
G1 X93.801 Y96.478 E.31147
G1 X95.14 Y96.478 E.04198
G1 X95.14 Y95.14 E.04195
G1 X96.478 Y95.14 E.04195
G1 X96.478 Y93.801 E.04198
G1 X106.671 Y93.801 E.31959
G1 X103.708 Y97.504 E.1487
G1 X103.372 Y97.341 E.01171
G1 X101.282 Y96.098 E.07624
G1 X100.942 Y96.16 E.01084
G1 X100.364 Y96.882 E.029
G1 X100.441 Y97.298 E.01326
G1 X102.698 Y98.619 E.082
G1 X104.898 Y99.661 E.07633
G1 X107.398 Y100.585 E.08357
G1 X107.793 Y100.31 E.01509
G1 X107.795 Y99.419 E.02794
G1 X107.632 Y99.178 E.00912
G1 X105.387 Y98.318 E.07538
G1 X104.682 Y97.976 E.02457
G1 X104.959 Y96.478 E.04776
G1 X110.428 Y96.478 E.17148
G1 X110.428 Y97.76 E.0402
G1 X107.821 Y130.285 F9000
G1 F1200
G1 X108.104 Y130.19 E.00936
G1 X108.488 Y130.467 E.01485
G1 X108.488 Y131.313 E.02653
G1 X108.32 Y131.552 E.00916
G1 X106.037 Y132.367 E.07601
G1 X103.984 Y133.306 E.07078
G1 X101.891 Y134.491 E.07541
G1 X101.635 Y134.484 E.00803
G1 X100.781 Y133.94 E.03175
G1 X100.785 Y133.428 E.01605
G1 X103.198 Y132.079 E.08668
G1 X105.502 Y131.064 E.07894
G1 X107.767 Y130.303 E.07492
G1 X130.467 Y122.512 F9000
G1 F1200
G1 X131.313 Y122.512 E.02653
G1 X131.552 Y122.68 E.00916
G1 X132.367 Y124.963 E.07601
G1 X133.306 Y127.016 E.07078
G1 X134.491 Y129.109 E.07541
G1 X134.484 Y129.365 E.00803
G1 X133.94 Y130.219 E.03175
G1 X133.428 Y130.215 E.01605
G1 X132.07 Y127.784 E.08731
G1 X131.056 Y125.478 E.07898
G1 X130.19 Y122.896 E.08539
G1 X130.434 Y122.557 E.0131
G1 E-3.5 F3600
;WIPE_START
G1 F7200
G1 X130.19 Y122.896 E-.1984
G1 X131.056 Y125.478 E-1.2936
G1 X131.063 Y125.493 E-.008
;WIPE_END
G1 X111.766 Y111.766 F9000
G1 E5 F2400
G1 F1200
G1 X119.234 Y111.766 E.23415
G1 X119.234 Y119.234 E.23415
G1 X111.766 Y119.234 E.23415
G1 X111.766 Y111.823 E.23237
G1 E-3.5 F3600
;WIPE_START
G1 F7200
G1 X111.766 Y114.981 E-1.5
;WIPE_END
G1 X96.914 Y101.01 F9000
G1 E5 F2400
G1 F1200
G1 X97.06 Y100.781 E.00852
G1 X97.572 Y100.785 E.01605
G1 X98.93 Y103.216 E.08731
G1 X99.944 Y105.522 E.07898
G1 X100.81 Y108.104 E.08539
G1 X100.533 Y108.488 E.01485
G1 X99.687 Y108.488 E.02653
G1 X99.448 Y108.32 E.00916
G1 X98.633 Y106.037 E.07601
G1 X97.694 Y103.984 E.07078
G1 X96.509 Y101.891 E.07541
G1 X96.516 Y101.635 E.00803
G1 X96.884 Y101.058 E.02146
G1 E-3.5 F3600
;WIPE_START
G1 F7200
G1 X96.516 Y101.635 E-.32507
G1 X96.509 Y101.891 E-.12165
G1 X97.601 Y103.821 E-1.05328
;WIPE_END
G1 X127.048 Y97.675 F9000
G1 E5 F2400
G1 F1200
G1 X129.109 Y96.509 E.07425
G1 X129.365 Y96.516 E.00803
G1 X130.219 Y97.06 E.03175
G1 X130.215 Y97.572 E.01605
G1 X127.784 Y98.93 E.08731
G1 X125.478 Y99.944 E.07898
G1 X122.896 Y100.81 E.08539
G1 X122.512 Y100.533 E.01485
G1 X122.512 Y99.687 E.02653
G1 X122.68 Y99.448 E.00916
G1 X124.963 Y98.633 E.07601
G1 X126.998 Y97.702 E.07017
G1 E-3.5 F3600
;WIPE_START
G1 F7200
G1 X124.963 Y98.633 E-1.06298
G1 X124.097 Y98.942 E-.43702
;WIPE_END
G1 X136.449 Y134.352 F9000
G1 E5 F2400
G1 F1200
G1 X136.449 Y124.927 E.29551
G1 X136.03 Y124.927 E.01314
G1 X136.03 Y134.182 E.29018
G1 X135.611 Y134.182 E.01314
G1 X135.611 Y124.927 E.29018
G1 X135.521 Y124.927 E.00282
G1 X135.521 Y122.25 E.08394
G1 X135.192 Y122.25 E.01032
G1 X135.192 Y135.521 E.4161
G1 X134.773 Y135.521 E.01314
G1 X134.773 Y122.25 E.4161
G1 X134.354 Y122.25 E.01314
G1 X134.354 Y128.178 E.18587
G1 X133.935 Y127.438 E.02666
G1 X133.935 Y119.573 E.2466
G1 X133.516 Y119.573 E.01314
G1 X133.516 Y126.659 E.22218
G1 X133.097 Y125.742 E.03161
G1 X133.097 Y119.573 E.19342
G1 X132.678 Y119.573 E.01314
G1 X132.678 Y124.824 E.16464
G1 X132.259 Y123.65 E.03908
G1 X132.259 Y119.573 E.12783
G1 X131.84 Y119.573 E.01314
G1 X131.84 Y122.477 E.09105
G1 X131.421 Y122.173 E.01623
G1 X131.421 Y118.234 E.1235
G1 X131.002 Y118.234 E.01314
G1 X131.002 Y122.172 E.12347
G1 X130.583 Y122.172 E.01314
G1 X130.583 Y118.234 E.12347
G1 X130.167 Y118.234 E.01304
G1 X130.167 Y111.427 E.21343
G1 X130.583 Y111.427 E.01304
G1 X130.583 Y108.133 E.10328
G1 X131.002 Y108.133 E.01314
G1 X131.002 Y111.427 E.10328
G1 X131.421 Y111.427 E.01314
G1 X131.421 Y108.133 E.10328
G1 X131.683 Y108.136 E.00822
G1 X131.84 Y108.03 E.00594
G1 X131.84 Y111.427 E.10651
G1 X132.259 Y111.427 E.01314
G1 X132.259 Y107.439 E.12504
G1 X132.678 Y106.346 E.0367
G1 X132.678 Y111.427 E.15931
G1 X132.844 Y111.427 E.0052
G1 X132.844 Y110.089 E.04195
G1 X133.097 Y110.089 E.00793
G1 X133.097 Y105.309 E.14987
G1 X133.216 Y105.063 E.00857
G1 X133.516 Y105.118 E.00956
G1 X133.516 Y110.089 E.15586
G1 X133.935 Y110.089 E.01314
G1 X133.935 Y105.023 E.15884
G1 E-3.5 F3600
;WIPE_START
G1 F7200
G1 X133.935 Y108.181 E-1.5
;WIPE_END
G1 X136.449 Y105.854 F9000
G1 E5 F2400
G1 F1200
G1 X136.449 Y96.818 E.28332
G1 X136.03 Y96.818 E.01314
G1 X136.03 Y105.301 E.26598
G1 X135.611 Y104.966 E.01682
G1 X135.611 Y96.818 E.25547
G1 X135.521 Y96.818 E.00282
G1 X135.521 Y95.479 E.04198
G1 X135.192 Y95.479 E.01032
G1 X135.192 Y104.631 E.28695
G1 X134.773 Y104.296 E.01682
G1 X134.773 Y102.163 E.06688
G1 X134.354 Y102.867 E.02569
G1 X134.354 Y103.96 E.03427
G1 X133.935 Y103.625 E.01682
G1 X133.935 Y103.239 E.0121
G1 E-3.5 F3600
;WIPE_START
G1 F7200
G1 X133.935 Y103.625 E-.18335
G1 X134.354 Y103.96 E-.25482
G1 X134.354 Y102.867 E-.51918
G1 X134.773 Y102.163 E-.38915
G1 X134.773 Y102.486 E-.1535
;WIPE_END
G1 X134.773 Y100.671 F9000
G1 E5 F2400
G1 F1200
G1 X134.773 Y95.479 E.16279
G1 X134.354 Y95.479 E.01314
G1 X134.354 Y100.119 E.14548
G1 X134.209 Y100.002 E.00584
G1 X133.935 Y100.053 E.00874
G1 X133.935 Y94.141 E.18537
G1 X133.516 Y94.141 E.01314
G1 X133.516 Y100.131 E.18781
G1 X133.488 Y100.136 E.00089
G1 X133.097 Y100.803 E.02424
G1 X133.097 Y94.141 E.20888
G1 X132.678 Y94.141 E.01314
G1 X132.678 Y101.519 E.23133
G1 X132.259 Y102.234 E.02598
G1 X132.259 Y94.141 E.25375
G1 X131.84 Y94.141 E.01314
G1 X131.84 Y103.045 E.27918
G1 X131.421 Y103.93 E.0307
G1 X131.421 Y94.141 E.30693
G1 X131.002 Y94.141 E.01314
G1 X131.002 Y104.828 E.33508
G1 X130.583 Y105.962 E.03791
G1 X130.583 Y94.141 E.37064
G1 X130.164 Y94.141 E.01314
G1 X130.164 Y96.622 E.07779
G1 X129.745 Y96.355 E.01558
G1 X129.745 Y94.141 E.06942
G1 X129.326 Y94.141 E.01314
G1 X129.326 Y96.175 E.06377
G1 X129.024 Y96.167 E.00947
G1 X128.907 Y96.233 E.00421
G1 X128.907 Y94.141 E.06559
G1 X128.488 Y94.141 E.01314
G1 X128.488 Y96.471 E.07306
G1 X128.069 Y96.708 E.01509
G1 X128.069 Y94.141 E.08049
G1 X127.65 Y94.141 E.01314
G1 X127.65 Y96.945 E.08792
G1 X127.231 Y97.182 E.01509
G1 X127.231 Y94.141 E.09535
G1 X126.812 Y94.141 E.01314
G1 X126.812 Y97.414 E.10262
G1 X126.393 Y97.605 E.01444
G1 X126.393 Y94.141 E.10861
G1 X125.974 Y94.141 E.01314
G1 X125.974 Y97.797 E.11463
G1 X125.555 Y97.988 E.01444
G1 X125.555 Y94.141 E.12062
G1 X125.136 Y94.141 E.01314
G1 X125.136 Y98.18 E.12664
G1 X124.717 Y98.36 E.0143
G1 X124.717 Y95.479 E.09033
G1 X124.299 Y95.479 E.01311
G1 X124.299 Y98.51 E.09503
G1 X123.88 Y98.659 E.01394
G1 X123.88 Y95.479 E.09971
G1 X123.461 Y95.479 E.01314
G1 X123.461 Y98.809 E.10441
G1 X123.042 Y98.958 E.01394
G1 X123.042 Y95.479 E.10908
G1 X122.623 Y95.479 E.01314
G1 X122.623 Y99.288 E.11943
G1 E-3.5 F3600
;WIPE_START
G1 F7200
G1 X122.623 Y96.13 E-1.5
;WIPE_END
G1 X134.354 Y135.691 F9000
G1 E5 F2400
G1 F1200
G1 X134.354 Y130.201 E.17214
G1 X134.125 Y130.56 E.01335
G1 X133.935 Y130.558 E.00596
G1 X133.935 Y136.859 E.19756
G1 X133.516 Y136.859 E.01314
G1 X133.516 Y130.555 E.19766
G1 X133.237 Y130.552 E.00875
G1 X133.097 Y130.324 E.00839
G1 X133.097 Y136.859 E.2049
G1 X132.678 Y136.859 E.01314
G1 X132.678 Y129.585 E.22807
G1 X132.259 Y128.829 E.0271
G1 X132.259 Y136.859 E.25178
G1 X131.84 Y136.859 E.01314
G1 X131.84 Y128.072 E.27551
G1 X131.421 Y127.152 E.0317
G1 X131.421 Y136.859 E.30436
G1 X131.002 Y136.859 E.01314
G1 X131.002 Y126.2 E.33421
G1 X130.75 Y125.628 E.0196
G1 X130.583 Y125.135 E.01632
G1 X130.583 Y133.323 E.25673
G1 X130.164 Y133.078 E.01522
G1 X130.164 Y123.886 E.28821
G1 X129.813 Y122.839 E.03462
G1 X130.164 Y122.351 E.01885
G1 X130.164 Y98.001 E.76348
G1 X129.745 Y98.233 E.01502
G1 X129.745 Y132.833 E1.08486
G1 X129.326 Y132.587 E.01523
G1 X129.326 Y98.465 E1.06987
G1 X128.907 Y98.697 E.01502
G1 X128.907 Y132.342 E1.05492
G1 X128.488 Y132.096 E.01523
G1 X128.488 Y98.929 E1.03993
G1 X128.069 Y99.161 E.01502
G1 X128.069 Y131.894 E1.02632
G1 X127.65 Y131.696 E.01453
G1 X127.65 Y99.36 E1.01387
G1 X127.231 Y99.544 E.01435
G1 X127.231 Y131.498 E1.0019
G1 X126.812 Y131.299 E.01454
G1 X126.812 Y99.729 E.98986
G1 X126.393 Y99.913 E.01435
G1 X126.393 Y131.101 E.97788
G1 X125.974 Y130.929 E.0142
G1 X125.974 Y100.097 E.96672
G1 X125.555 Y100.276 E.01429
G1 X125.555 Y130.774 E.95624
G1 X125.136 Y130.619 E.01401
G1 X125.136 Y100.416 E.94699
G1 X124.717 Y100.557 E.01386
G1 X124.717 Y130.465 E.93774
G1 X124.299 Y130.31 E.01398
G1 X124.299 Y100.697 E.92849
G1 X123.88 Y100.838 E.01386
G1 X123.88 Y130.155 E.91921
G1 X123.554 Y130.035 E.01089
G1 X123.461 Y130.1 E.00356
G1 X123.461 Y100.978 E.9131
G1 X123.042 Y101.119 E.01386
G1 X123.042 Y130.392 E.91783
G1 X122.867 Y130.513 E.00667
G1 X122.864 Y131.683 E.03668
G1 X123.042 Y131.946 E.00996
G1 X123.042 Y134.182 E.07011
G1 X122.623 Y134.182 E.01314
G1 X122.623 Y100.822 E1.04598
G1 E-3.5 F3600
;WIPE_START
G1 F7200
G1 X122.623 Y103.98 E-1.5
;WIPE_END
G1 X130.583 Y137.029 F9000
G1 E5 F2400
G1 F1200
G1 X130.583 Y134.727 E.07218
G1 X130.244 Y135.151 E.01702
G1 X130.164 Y135.166 E.00255
G1 X130.164 Y136.859 E.05308
G1 X129.745 Y136.859 E.01314
G1 X129.745 Y135.242 E.0507
G1 X129.653 Y135.258 E.00293
G1 X129.326 Y135.064 E.01192
G1 X129.326 Y136.859 E.05628
G1 X128.907 Y136.859 E.01314
G1 X128.907 Y134.815 E.06409
G1 X128.488 Y134.565 E.0153
G1 X128.488 Y136.859 E.07193
G1 X128.069 Y136.859 E.01314
G1 X128.069 Y134.316 E.07973
G1 X127.65 Y134.067 E.01528
G1 X127.65 Y136.859 E.08754
G1 X127.231 Y136.859 E.01314
G1 X127.231 Y134.114 E.08607
G1 X126.812 Y134.638 E.02104
G1 X126.812 Y136.859 E.06964
G1 X126.393 Y136.859 E.01314
G1 X126.393 Y135.162 E.05321
G1 X125.974 Y135.685 E.02101
G1 X125.974 Y136.859 E.03681
G1 X125.555 Y136.859 E.01314
G1 X125.555 Y136.209 E.02038
G1 X125.136 Y136.733 E.02104
G1 X125.136 Y137.029 E.00928
G1 E-3.5 F3600
;WIPE_START
G1 F7200
G1 X125.136 Y136.733 E-.1406
G1 X125.555 Y136.209 E-.31869
G1 X125.555 Y136.859 E-.30875
G1 X125.974 Y136.859 E-.19902
G1 X125.974 Y135.737 E-.53294
;WIPE_END
G1 X125.555 Y134.352 F9000
G1 E5 F2400
G1 F1200
G1 X125.555 Y133.031 E.04142
G1 X125.136 Y132.863 E.01415
G1 X125.136 Y134.182 E.04136
G1 X124.717 Y134.182 E.01314
