; generated by PrusaSlicer 2.6.1+win64 on 2024-01-17 at 17:09:21 UTC

; 

; external perimeters extrusion width = 0.42mm
; perimeters extrusion width = 0.44mm
; infill extrusion width = 0.44mm
; solid infill extrusion width = 0.44mm
; top infill extrusion width = 0.40mm
; first layer extrusion width = 0.42mm

; external perimeters extrusion width = 0.42mm
; perimeters extrusion width = 0.44mm
; infill extrusion width = 0.44mm
; solid infill extrusion width = 0.44mm
; top infill extrusion width = 0.40mm
; first layer extrusion width = 0.42mm

M201 X500 Y500 Z100 E5000 ; sets maximum accelerations, mm/sec^2
M203 X500 Y500 Z10 E60 ; sets maximum feedrates, mm / sec
M204 S500 T1000 ; sets acceleration (S) and retract acceleration (R), mm/sec^2
M205 X8.00 Y8.00 Z0.40 E5.00 ; sets the jerk limits, mm/sec
M205 S0 T0 ; sets the minimum extruding and travel feed rate, mm/sec
;TYPE:Custom
G90 ; use absolute coordinates
M83 ; extruder relative mode
M104 S150 ; set temporary nozzle temp to prevent oozing during homing
M140 S60 ; set final bed temp
G4 S30 ; allow partial nozzle warmup
G28 ; home all axis
G1 Z50 F240
G1 X2.0 Y10 F3000
M104 S210 ; set final nozzle temp
M190 S60 ; wait for bed temp to stabilize
M109 S210 ; wait for nozzle temp to stabilize
G1 Z0.28 F240
G92 E0
G1 X2.0 Y140 E10 F1500 ; prime the nozzle
G1 X2.3 Y140 F5000
G92 E0
G1 X2.3 Y10 E10 F1200 ; prime the nozzle
G92 E0
G21 ; set units to millimeters
G90 ; use absolute coordinates
M83 ; use relative distances for extrusion
; Filament gcode
M107
;LAYER_CHANGE
;Z:0.2
;HEIGHT:0.2
;BEFORE_LAYER_CHANGE
G92 E0
;0.2


G1 E-5 F3600
G1 Z.2 F9000
;AFTER_LAYER_CHANGE
;0.2
G1 X108.897 Y114.573
G1 E5 F2400
M204 S500
;TYPE:Skirt/Brim
;WIDTH:0.42
G1 F954
G1 X115.053 Y108.769 E.26528
G1 X116.542 Y107.906 E.05396
G1 X117.628 Y107.746 E.03442
G1 X119.528 Y107.746 E.05957
G1 X121.204 Y108.141 E.05399
G1 X122.183 Y108.845 E.03781
G1 X133.433 Y120.095 E.49884
G1 X134.338 Y121.559 E.05397
G1 X134.532 Y122.75 E.03784
G1 X134.532 Y124.814 E.06472
G1 X134.137 Y126.49 E.05399
G1 X133.384 Y127.517 E.03993
G1 X127.228 Y133.453 E.26813
G1 X125.748 Y134.331 E.05396
G1 X124.622 Y134.504 E.03572
G1 X122.722 Y134.504 E.05957
G1 X121.046 Y134.109 E.05399
G1 X120.067 Y133.405 E.03781
G1 X108.817 Y122.155 E.49884
G1 X107.912 Y120.691 E.05397
G1 X107.718 Y119.5 E.03784
G1 X107.718 Y117.305 E.06882
G1 X108.113 Y115.629 E.05399
G1 X108.861 Y114.621 E.03936
G1 X109.155 Y114.847 F9000
G1 F954
G1 X115.311 Y109.043 E.26528
G1 X116.733 Y108.244 E.05114
G1 X117.628 Y108.123 E.02832
G1 X119.528 Y108.123 E.05957
G1 X121.111 Y108.517 E.05115
G1 X121.916 Y109.112 E.03139
G1 X133.166 Y120.362 E.49884
G1 X134.007 Y121.76 E.05115
G1 X134.155 Y122.75 E.03139
G1 X134.155 Y124.814 E.06472
G1 X133.761 Y126.398 E.05118
G1 X133.122 Y127.246 E.03329
G1 X126.966 Y133.181 E.26811
G1 X125.553 Y133.996 E.05114
G1 X124.622 Y134.127 E.02948
G1 X122.722 Y134.127 E.05957
G1 X121.139 Y133.733 E.05115
G1 X120.334 Y133.138 E.03139
G1 X109.084 Y121.888 E.49884
G1 X108.243 Y120.49 E.05115
G1 X108.095 Y119.5 E.03139
G1 X108.095 Y117.305 E.06882
G1 X108.489 Y115.721 E.05118
G1 X109.119 Y114.895 E.03257
; printing object line_connect_short.STL id:0 copy 0
G1 E-3.5 F3600
;WIPE_START
G1 F7200
G1 X111.414 Y112.726 E-1.5
;WIPE_END
G1 X112.723 Y117.462 F9000
G1 E5 F2400
;TYPE:Perimeter
;WIDTH:0.494381
G1 F954
G1 X112.648 Y117.603 E.006
G1 X112.648 Y118.776 E.04403
G1 X112.196 Y118.776 E.01697
G1 X112.196 Y117.692 E.04069
G1 X112.667 Y117.353 E.02178
;WIDTH:0.452699
G1 X112.863 Y117.197 E.00854
G1 X112.756 Y117.4 E.00782
;WIDTH:0.494381
G1 X112.751 Y117.409 E.00039
G1 E-3.5 F3600
;WIPE_START
G1 F7200
G1 X112.648 Y117.603 E-.10433
G1 X112.648 Y118.776 E-.55717
G1 X112.196 Y118.776 E-.2147
G1 X112.196 Y117.692 E-.5149
G1 X112.382 Y117.558 E-.1089
;WIPE_END
G1 X118.137 Y113.672 F9000
G1 E5 F2400
;WIDTH:0.452699
G1 F954
G1 X118.244 Y113.469 E.00782
;WIDTH:0.494381
G1 X118.352 Y113.266 E.00863
G1 X118.352 Y112.224 E.03912
G1 X118.804 Y112.224 E.01697
G1 X118.804 Y112.45 E.00848
G1 X118.804 Y113.177 E.02729
G1 X118.333 Y113.516 E.02178
;WIDTH:0.452699
G1 X118.184 Y113.634 E.00648
G1 X117.938 Y113.266 F9000
;TYPE:External perimeter
;WIDTH:0.419999
G1 F954
G1 X117.938 Y111.81 E.04565
G1 X119.218 Y111.81 E.04013
G1 X119.218 Y113.399 E.04982
G1 X113.146 Y117.447 E.22881
G1 X113.062 Y117.603 E.00556
G1 X113.062 Y119.19 E.04976
G1 X111.782 Y119.19 E.04013
G1 X111.782 Y117.47 E.05393
G1 X117.854 Y113.422 E.22881
G1 X117.91 Y113.318 E.0037
G1 X118.33 Y113.186 F9000
G1 E-3.5 F3600
;WIPE_START
G1 F7200
G1 X117.938 Y111.81 E-.71642
G1 X119.218 Y111.81 E-.608
G1 X119.218 Y112.18 E-.17558
;WIPE_END
G1 X112.863 Y117.197 F9000
G1 E5 F2400
;TYPE:Perimeter
;WIDTH:0.411016
G1 F954
G1 X112.942 Y117.14 E.00298
;WIDTH:0.402578
G1 X118.058 Y113.729 E.18389
;WIDTH:0.411016
G1 X118.137 Y113.672 E.00298
; stop printing object line_connect_short.STL id:0 copy 0
; printing object line_connect_short.STL id:1 copy 0
G1 E-3.5 F3600
;WIPE_START
G1 F7200
G1 X118.058 Y113.729 E-.04627
G1 X115.512 Y115.427 E-1.45373
;WIPE_END
G1 X124.113 Y128.447 F9000
G1 E5 F2400
;WIDTH:0.452699
G1 F954
G1 X124.006 Y128.65 E.00782
;WIDTH:0.494381
G1 X123.898 Y128.853 E.00863
G1 X123.898 Y130.026 E.04403
G1 X123.446 Y130.026 E.01697
G1 X123.446 Y128.942 E.04069
G1 X123.917 Y128.603 E.02178
;WIDTH:0.452699
G1 X124.066 Y128.485 E.00648
G1 E-3.5 F3600
;WIPE_START
G1 F7200
G1 X124.006 Y128.65 E-.0834
G1 X123.898 Y128.853 E-.10922
G1 X123.898 Y130.026 E-.55718
G1 X123.446 Y130.026 E-.2147
G1 X123.446 Y128.942 E-.5149
G1 X123.481 Y128.917 E-.0206
;WIPE_END
G1 X129.387 Y124.922 F9000
G1 E5 F2400
G1 F954
G1 X129.494 Y124.719 E.00782
;WIDTH:0.494381
G1 X129.602 Y124.516 E.00863
G1 X129.602 Y123.474 E.03912
G1 X130.054 Y123.474 E.01697
G1 X130.054 Y123.7 E.00848
G1 X130.054 Y124.427 E.02729
G1 X129.583 Y124.766 E.02178
;WIDTH:0.452699
G1 X129.434 Y124.884 E.00648
G1 X129.188 Y124.516 F9000
;TYPE:External perimeter
;WIDTH:0.419999
G1 F954
G1 X129.188 Y123.06 E.04565
G1 X130.468 Y123.06 E.04013
G1 X130.468 Y124.649 E.04982
G1 X124.396 Y128.697 E.22881
G1 X124.312 Y128.853 E.00556
G1 X124.312 Y130.44 E.04976
G1 X123.032 Y130.44 E.04013
G1 X123.032 Y128.72 E.05393
G1 X129.104 Y124.672 E.22881
G1 X129.16 Y124.568 E.0037
G1 X129.58 Y124.436 F9000
G1 E-3.5 F3600
;WIPE_START
G1 F7200
G1 X129.188 Y123.06 E-.71642
G1 X130.468 Y123.06 E-.608
G1 X130.468 Y123.43 E-.17558
;WIPE_END
G1 X124.113 Y128.447 F9000
G1 E5 F2400
;TYPE:Perimeter
;WIDTH:0.411016
G1 F954
G1 X124.192 Y128.39 E.00298
;WIDTH:0.402578
G1 X129.308 Y124.979 E.18389
;WIDTH:0.411016
G1 X129.387 Y124.922 E.00298
; stop printing object line_connect_short.STL id:1 copy 0
M106 S255
;LAYER_CHANGE
;Z:0.3
;HEIGHT:0.1
;BEFORE_LAYER_CHANGE
G92 E0
;0.3


G1 E-3.5 F3600
;WIPE_START
G1 F7200
G1 X129.308 Y124.979 E-.04627
G1 X126.762 Y126.677 E-1.45373
;WIPE_END
G1 Z.3 F9000
;AFTER_LAYER_CHANGE
;0.3
M104 S205 ; set temperature
G1 X130.372 Y130.421
G1 E5 F2400
;TYPE:Skirt/Brim
;WIDTH:0.42
G1 F916
G1 X127.228 Y133.453 E.07237
G1 X125.748 Y134.331 E.02851
G1 X124.622 Y134.504 E.01888
G1 X122.722 Y134.504 E.03148
G1 X121.046 Y134.109 E.02853
G1 X120.067 Y133.405 E.01998
G1 X108.817 Y122.155 E.26362
G1 X107.912 Y120.691 E.02852
G1 X107.718 Y119.5 E.01999
G1 X107.718 Y117.305 E.03637
G1 X108.113 Y115.629 E.02853
G1 X108.897 Y114.573 E.02179
G1 X115.053 Y108.769 E.14019
G1 X116.542 Y107.906 E.02852
G1 X117.628 Y107.746 E.01819
G1 X119.528 Y107.746 E.03148
G1 X121.204 Y108.141 E.02853
G1 X122.183 Y108.845 E.01998
G1 X133.433 Y120.095 E.26362
G1 X134.338 Y121.559 E.02852
G1 X134.532 Y122.75 E.01999
G1 X134.532 Y124.814 E.0342
G1 X134.137 Y126.49 E.02853
G1 X133.384 Y127.517 E.0211
G1 X130.415 Y130.379 E.06833
G1 X130.153 Y130.108 F9000
G1 F916
G1 X126.966 Y133.181 E.07336
G1 X125.553 Y133.996 E.02703
G1 X124.622 Y134.127 E.01558
G1 X122.722 Y134.127 E.03148
G1 X121.139 Y133.733 E.02703
G1 X120.334 Y133.138 E.01659
G1 X109.084 Y121.888 E.26362
G1 X108.243 Y120.49 E.02703
G1 X108.095 Y119.5 E.01659
G1 X108.095 Y117.305 E.03637
G1 X108.489 Y115.721 E.02705
G1 X109.155 Y114.847 E.01821
G1 X115.311 Y109.043 E.14019
G1 X116.733 Y108.244 E.02703
G1 X117.628 Y108.123 E.01496
G1 X119.528 Y108.123 E.03148
G1 X121.111 Y108.517 E.02703
G1 X121.916 Y109.112 E.01659
G1 X133.166 Y120.362 E.26362
G1 X134.007 Y121.76 E.02703
G1 X134.155 Y122.75 E.01659
G1 X134.155 Y124.814 E.0342
G1 X133.761 Y126.398 E.02705
G1 X133.122 Y127.246 E.01759
G1 X130.196 Y130.066 E.06733
; printing object line_connect_short.STL id:0 copy 0
G1 E-3.5 F3600
;WIPE_START
G1 F7200
G1 X127.923 Y132.258 E-1.5
;WIPE_END
G1 X112.897 Y117.176 F9000
G1 E5 F2400
;TYPE:Perimeter
;WIDTH:0.569774
G1 F916
G1 X112.692 Y117.663 E.01205
;WIDTH:0.562191
G1 X112.692 Y118.82 E.02601
G1 X112.152 Y118.82 E.01214
G1 X112.152 Y117.668 E.0259
G1 X112.397 Y117.505 E.00662
;WIDTH:0.569774
G1 X112.847 Y117.209 E.01228
G1 E-3.5 F3600
;WIPE_START
G1 F7200
G1 X112.692 Y117.663 E-.22787
G1 X112.692 Y118.82 E-.54958
G1 X112.152 Y118.82 E-.2565
G1 X112.152 Y117.839 E-.46605
;WIPE_END
G1 X118.103 Y113.693 F9000
G1 E5 F2400
G1 F916
G1 X118.308 Y113.206 E.01205
;WIDTH:0.562191
G1 X118.308 Y112.18 E.02307
G1 X118.848 Y112.18 E.01214
G1 X118.848 Y112.45 E.00607
G1 X118.848 Y113.201 E.01688
G1 X118.603 Y113.364 E.00662
;WIDTH:0.569774
G1 X118.153 Y113.66 E.01228
G1 X117.838 Y113.206 F9000
;TYPE:External perimeter
;WIDTH:0.419999
G1 F916
G1 X117.838 Y111.71 E.02479
G1 X119.318 Y111.71 E.02452
G1 X119.318 Y113.452 E.02886
G1 X113.251 Y117.497 E.12082
G1 X113.162 Y117.663 E.00312
G1 X113.162 Y119.29 E.02696
G1 X111.682 Y119.29 E.02452
G1 X111.682 Y117.417 E.03103
G1 X117.749 Y113.372 E.12082
G1 X117.81 Y113.259 E.00213
G1 X118.23 Y113.127 F9000
G1 E-3.5 F3600
;WIPE_START
G1 F7200
G1 X117.838 Y111.71 E-.7359
G1 X119.318 Y111.71 E-.703
G1 X119.318 Y111.839 E-.0611
;WIPE_END
G1 X112.897 Y117.176 F9000
G1 E5 F2400
;TYPE:Perimeter
;WIDTH:0.569774
G1 F916
G1 X112.991 Y117.107 E.00266
;WIDTH:0.559654
G1 X118.009 Y113.762 E.13494
;WIDTH:0.569774
G1 X118.103 Y113.693 E.00266
; stop printing object line_connect_short.STL id:0 copy 0
; printing object line_connect_short.STL id:1 copy 0
G1 E-3.5 F3600
;WIPE_START
G1 F7200
G1 X118.009 Y113.762 E-.05539
G1 X115.478 Y115.449 E-1.44461
;WIPE_END
G1 X124.147 Y128.426 F9000
G1 E5 F2400
G1 F916
G1 X123.942 Y128.913 E.01205
;WIDTH:0.562191
G1 X123.942 Y130.07 E.02601
G1 X123.402 Y130.07 E.01214
G1 X123.402 Y128.918 E.0259
G1 X123.647 Y128.755 E.00662
;WIDTH:0.569774
G1 X124.097 Y128.459 E.01228
G1 E-3.5 F3600
;WIPE_START
G1 F7200
G1 X123.942 Y128.913 E-.22787
G1 X123.942 Y130.07 E-.54957
G1 X123.402 Y130.07 E-.2565
G1 X123.402 Y129.089 E-.46606
;WIPE_END
G1 X129.353 Y124.943 F9000
G1 E5 F2400
G1 F916
G1 X129.558 Y124.456 E.01205
;WIDTH:0.562191
G1 X129.558 Y123.43 E.02307
G1 X130.098 Y123.43 E.01214
G1 X130.098 Y123.7 E.00607
G1 X130.098 Y124.451 E.01688
G1 X129.853 Y124.614 E.00662
;WIDTH:0.569774
G1 X129.403 Y124.91 E.01228
G1 X129.088 Y124.456 F9000
;TYPE:External perimeter
;WIDTH:0.419999
G1 F916
G1 X129.088 Y122.96 E.02479
G1 X130.568 Y122.96 E.02452
G1 X130.568 Y124.702 E.02886
G1 X124.501 Y128.747 E.12082
G1 X124.412 Y128.913 E.00312
G1 X124.412 Y130.54 E.02696
G1 X122.932 Y130.54 E.02452
G1 X122.932 Y128.667 E.03103
G1 X128.999 Y124.622 E.12082
G1 X129.06 Y124.509 E.00213
G1 X129.48 Y124.377 F9000
G1 E-3.5 F3600
;WIPE_START
G1 F7200
G1 X129.088 Y122.96 E-.7359
G1 X130.568 Y122.96 E-.703
G1 X130.568 Y123.089 E-.0611
;WIPE_END
G1 X124.147 Y128.426 F9000
G1 E5 F2400
;TYPE:Perimeter
;WIDTH:0.569774
G1 F916
G1 X124.241 Y128.357 E.00266
;WIDTH:0.559654
G1 X129.259 Y125.012 E.13494
;WIDTH:0.569774
G1 X129.353 Y124.943 E.00266
; stop printing object line_connect_short.STL id:1 copy 0
;LAYER_CHANGE
;Z:0.4
;HEIGHT:0.1
;BEFORE_LAYER_CHANGE
G92 E0
;0.4


G1 E-3.5 F3600
;WIPE_START
G1 F7200
G1 X129.259 Y125.012 E-.05539
G1 X126.728 Y126.699 E-1.44461
;WIPE_END
G1 Z.4 F9000
;AFTER_LAYER_CHANGE
;0.4
; printing object line_connect_short.STL id:0 copy 0
G1 X112.897 Y117.176
G1 E5 F2400
G1 F900
G1 X112.692 Y117.663 E.01205
;WIDTH:0.562191
G1 X112.692 Y118.82 E.02601
G1 X112.152 Y118.82 E.01214
G1 X112.152 Y117.668 E.0259
G1 X112.397 Y117.505 E.00662
;WIDTH:0.569774
G1 X112.847 Y117.209 E.01228
G1 E-3.5 F3600
;WIPE_START
G1 F7200
G1 X112.692 Y117.663 E-.22787
G1 X112.692 Y118.82 E-.54958
G1 X112.152 Y118.82 E-.2565
G1 X112.152 Y117.839 E-.46605
;WIPE_END
G1 X118.103 Y113.693 F9000
G1 E5 F2400
G1 F900
G1 X118.308 Y113.206 E.01205
;WIDTH:0.562191
G1 X118.308 Y112.18 E.02307
G1 X118.848 Y112.18 E.01214
G1 X118.848 Y112.45 E.00607
G1 X118.848 Y113.201 E.01688
G1 X118.603 Y113.364 E.00662
;WIDTH:0.569774
G1 X118.153 Y113.66 E.01228
G1 X117.838 Y113.206 F9000
;TYPE:External perimeter
;WIDTH:0.419999
G1 F900
G1 X117.838 Y111.71 E.02479
G1 X119.318 Y111.71 E.02452
G1 X119.318 Y113.452 E.02886
G1 X113.251 Y117.497 E.12082
G1 X113.162 Y117.663 E.00312
G1 X113.162 Y119.29 E.02696
G1 X111.682 Y119.29 E.02452
G1 X111.682 Y117.417 E.03103
G1 X117.749 Y113.372 E.12082
G1 X117.81 Y113.259 E.00213
G1 X118.23 Y113.127 F9000
G1 E-3.5 F3600
;WIPE_START
G1 F7200
G1 X117.838 Y111.71 E-.7359
G1 X119.318 Y111.71 E-.703
G1 X119.318 Y111.839 E-.0611
;WIPE_END
G1 X112.897 Y117.176 F9000
G1 E5 F2400
;TYPE:Perimeter
;WIDTH:0.569774
G1 F900
G1 X112.991 Y117.107 E.00266
;WIDTH:0.559654
G1 X118.009 Y113.762 E.13494
;WIDTH:0.569774
G1 X118.103 Y113.693 E.00266
; stop printing object line_connect_short.STL id:0 copy 0
; printing object line_connect_short.STL id:1 copy 0
G1 E-3.5 F3600
;WIPE_START
G1 F7200
G1 X118.009 Y113.762 E-.05539
G1 X115.478 Y115.449 E-1.44461
;WIPE_END
G1 X124.147 Y128.426 F9000
G1 E5 F2400
G1 F900
G1 X123.942 Y128.913 E.01205
;WIDTH:0.562191
G1 X123.942 Y130.07 E.02601
G1 X123.402 Y130.07 E.01214
G1 X123.402 Y128.918 E.0259
G1 X123.647 Y128.755 E.00662
;WIDTH:0.569774
G1 X124.097 Y128.459 E.01228
G1 E-3.5 F3600
;WIPE_START
G1 F7200
G1 X123.942 Y128.913 E-.22787
G1 X123.942 Y130.07 E-.54957
G1 X123.402 Y130.07 E-.2565
G1 X123.402 Y129.089 E-.46606
;WIPE_END
G1 X129.353 Y124.943 F9000
G1 E5 F2400
G1 F900
G1 X129.558 Y124.456 E.01205
;WIDTH:0.562191
G1 X129.558 Y123.43 E.02307
G1 X130.098 Y123.43 E.01214
G1 X130.098 Y123.7 E.00607
G1 X130.098 Y124.451 E.01688
G1 X129.853 Y124.614 E.00662
;WIDTH:0.569774
G1 X129.403 Y124.91 E.01228
G1 X129.088 Y124.456 F9000
;TYPE:External perimeter
;WIDTH:0.419999
G1 F900
G1 X129.088 Y122.96 E.02479
G1 X130.568 Y122.96 E.02452
G1 X130.568 Y124.702 E.02886
G1 X124.501 Y128.747 E.12082
G1 X124.412 Y128.913 E.00312
G1 X124.412 Y130.54 E.02696
G1 X122.932 Y130.54 E.02452
G1 X122.932 Y128.667 E.03103
G1 X128.999 Y124.622 E.12082
G1 X129.06 Y124.509 E.00213
G1 X129.48 Y124.377 F9000
G1 E-3.5 F3600
;WIPE_START
G1 F7200
G1 X129.088 Y122.96 E-.7359
G1 X130.568 Y122.96 E-.703
G1 X130.568 Y123.089 E-.0611
;WIPE_END
G1 X124.147 Y128.426 F9000
G1 E5 F2400
;TYPE:Perimeter
;WIDTH:0.569774
G1 F900
G1 X124.241 Y128.357 E.00266
;WIDTH:0.559654
G1 X129.259 Y125.012 E.13494
;WIDTH:0.569774
G1 X129.353 Y124.943 E.00266
; stop printing object line_connect_short.STL id:1 copy 0
;LAYER_CHANGE
;Z:0.5
;HEIGHT:0.1
;BEFORE_LAYER_CHANGE
G92 E0
;0.5


G1 E-3.5 F3600
;WIPE_START
G1 F7200
G1 X129.259 Y125.012 E-.05539
G1 X126.728 Y126.699 E-1.44461
;WIPE_END
G1 Z.5 F9000
;AFTER_LAYER_CHANGE
;0.5
; printing object line_connect_short.STL id:0 copy 0
G1 X112.897 Y117.176
G1 E5 F2400
G1 F900
G1 X112.692 Y117.663 E.01205
;WIDTH:0.562191
G1 X112.692 Y118.82 E.02601
G1 X112.152 Y118.82 E.01214
G1 X112.152 Y117.668 E.0259
G1 X112.397 Y117.505 E.00662
;WIDTH:0.569774
G1 X112.847 Y117.209 E.01228
G1 E-3.5 F3600
;WIPE_START
G1 F7200
G1 X112.692 Y117.663 E-.22787
G1 X112.692 Y118.82 E-.54958
G1 X112.152 Y118.82 E-.2565
G1 X112.152 Y117.839 E-.46605
;WIPE_END
G1 X118.103 Y113.693 F9000
G1 E5 F2400
G1 F900
G1 X118.308 Y113.206 E.01205
;WIDTH:0.562191
G1 X118.308 Y112.18 E.02307
G1 X118.848 Y112.18 E.01214
G1 X118.848 Y112.45 E.00607
G1 X118.848 Y113.201 E.01688
G1 X118.603 Y113.364 E.00662
;WIDTH:0.569774
G1 X118.153 Y113.66 E.01228
